assets/icons/tram/tram_T11_carto_RVB.svg

<svg id="tram_T11_carto_RVB" xmlns="http://www.w3.org/2000/svg" width="311.7" height="311.8" viewBox="0 0 311.7 311.8">
	<path id="Tracé_17" data-name="Tracé 17" d="M28.3,311.8A28.338,28.338,0,0,1,0,283.5V28.3A28.338,28.338,0,0,1,28.3,0H283.4a28.338,28.338,0,0,1,28.3,28.3V283.4a28.338,28.338,0,0,1-28.3,28.3H28.3Z" fill="#fff"/>
	<path id="Tracé_18" data-name="Tracé 18" d="M95.2,121.3v89.6H71V121.3H37.5V101.7h91.3v19.6H95.2Zm87.9,89.6V125.1c-6.6,5.3-17.2,10.4-24.4,13.6L151.3,122c11.4-4.8,25.2-12.1,36-20.3h19V210.9Zm68.1,0V125.1c-6.6,5.3-17.2,10.4-24.4,13.6L219.4,122c11.4-4.8,25.2-12.1,36-20.3h19V210.9Z"/>
	<path id="Tracé_19" data-name="Tracé 19" d="M283.5,56.4H28.3A14.19,14.19,0,0,1,14.1,42.2V28.1A14.19,14.19,0,0,1,28.3,13.9H283.4a14.19,14.19,0,0,1,14.2,14.2V42.3a14.084,14.084,0,0,1-14.1,14.1m14.1,226.8V269a14.19,14.19,0,0,0-14.2-14.2H28.3A14.19,14.19,0,0,0,14.1,269v14.2a14.19,14.19,0,0,0,14.2,14.2H283.4a14.19,14.19,0,0,0,14.2-14.2" fill="#ff5a00"/>
</svg>

<?xml version="1.0" encoding="utf-8"?>
<!-- Generator: Adobe Illustrator 26.3.1, SVG Export Plug-In . SVG Version: 6.00 Build 0)  -->
<svg version="1.1" id="Layer_1" xmlns="http://www.w3.org/2000/svg" xmlns:xlink="http://www.w3.org/1999/xlink" x="0px" y="0px"
	 viewBox="0 0 311.8 311.8" style="enable-background:new 0 0 311.8 311.8;" xml:space="preserve">
<style type="text/css">
	.st0{fill:#FFFFFF;}
	.st1{fill:#FF5A00;}
</style>
<g>
	<path class="st0" d="M28.3,311.8C12.7,311.8,0,299.1,0,283.5V28.3C0,12.7,12.7,0,28.3,0h255.1c15.6,0,28.3,12.7,28.3,28.3v255.1
		c0,15.6-12.7,28.3-28.3,28.3H28.3z"/>
	<path d="M95.2,121.3v89.6H71v-89.6H37.5v-19.6h91.3v19.6H95.2z M183.1,210.9v-85.8c-6.6,5.3-17.2,10.4-24.4,13.6l-7.4-16.7
		c11.4-4.8,25.2-12.1,36-20.3h19v109.2H183.1z M251.2,210.9v-85.8c-6.6,5.3-17.2,10.4-24.4,13.6l-7.4-16.7
		c11.4-4.8,25.2-12.1,36-20.3h19v109.2H251.2z"/>
	<path class="st1" d="M283.5,56.4H28.3c-7.8,0-14.2-6.3-14.2-14.2V28.1c0-7.8,6.3-14.2,14.2-14.2h255.1c7.8,0,14.2,6.3,14.2,14.2
		v14.2C297.6,50.1,291.3,56.4,283.5,56.4 M297.6,283.2V269c0-7.8-6.3-14.2-14.2-14.2H28.3c-7.8,0-14.2,6.3-14.2,14.2v14.2
		c0,7.8,6.3,14.2,14.2,14.2h255.1C291.3,297.4,297.6,291,297.6,283.2"/>
</g>
</svg>
